public/library/lineascan-icon-dark.svg

<svg width="256" height="256" viewBox="0 0 256 256" fill="none" xmlns="http://www.w3.org/2000/svg">
<rect width="256" height="256" fill="white"/>
<rect width="116" height="122" transform="translate(70 67)" fill="white"/>
<mask id="mask0_4901_1919" style="mask-type:luminance" maskUnits="userSpaceOnUse" x="70" y="67" width="116" height="121">
<path d="M185.467 67.3063H70V187.94H185.467V67.3063Z" fill="white"/>
</mask>
<g mask="url(#mask0_4901_1919)">
<path d="M165.896 187.94H70V86.8811H91.9411V168.354H165.896V187.93V187.94Z" fill="#121212"/>
<path d="M165.896 106.456C176.705 106.456 185.467 97.692 185.467 86.8812C185.467 76.0703 176.705 67.3063 165.896 67.3063C155.087 67.3063 146.324 76.0703 146.324 86.8812C146.324 97.692 155.087 106.456 165.896 106.456Z" fill="#121212"/>
</g>
</svg>

<svg xmlns="http://www.w3.org/2000/svg" width="256" height="256" fill="none" viewBox="0 0 256 256"><path fill="#fff" d="M0 0h256v256H0z"/><path fill="#fff" d="M70 67h116v122H70z"/><mask id="a" width="116" height="121" x="70" y="67" maskUnits="userSpaceOnUse" style="mask-type:luminance"><path fill="#fff" d="M185.467 67.306H70V187.94h115.467z"/></mask><g fill="#121212" mask="url(#a)"><path d="M165.896 187.94H70V86.881h21.941v81.473h73.955v19.586M165.896 106.456c10.809 0 19.571-8.764 19.571-19.575s-8.762-19.575-19.571-19.575-19.572 8.764-19.572 19.575 8.763 19.575 19.572 19.575"/></g></svg>
